images/vehicles/truck-outbound.svg

<?xml version="1.0" standalone="no"?><!DOCTYPE svg PUBLIC "-//W3C//DTD SVG 1.1//EN" "http://www.w3.org/Graphics/SVG/1.1/DTD/svg11.dtd"><svg width="240px" height="288px" version="1.1" xmlns="http://www.w3.org/2000/svg" xmlns:xlink="http://www.w3.org/1999/xlink" xml:space="preserve" style="fill-rule:evenodd;clip-rule:evenodd;stroke-linejoin:round;stroke-miterlimit:1.41421;"><g><g id="truck-outbound" transform="matrix(1,0,0,1,12,8.36585)"><g transform="matrix(1,0,0,1,-1263.96,-583.366)"><path d="M1281.72,843.337l1.69,19.663l19.452,0l4.015,-19.874l-25.157,0.211Z" style="fill:#5c5e5f;fill-rule:nonzero;"/></g><g transform="matrix(1,0,0,1,-1263.96,-583.366)"><path d="M1302.01,843.127l0.847,19.45l6.018,-19.45l-6.865,0Z" style="fill:#2a2b2a;fill-rule:nonzero;"/></g><g transform="matrix(1,0,0,1,-1263.96,-583.366)"><path d="M1438.57,862.789l19.449,0.211l1.693,-19.452l-25.16,-0.211l4.018,19.452Z" style="fill:#5c5e5f;fill-rule:nonzero;"/></g><g transform="matrix(1,0,0,1,-1263.96,-583.366)"><path d="M1432.47,843.337l6.018,19.663l0.847,-19.663l-6.865,0Z" style="fill:#2a2b2a;fill-rule:nonzero;"/></g><g transform="matrix(1,0,0,1,-1263.96,-583.366)"><path d="M1281.59,843.534l178.21,0l7.188,-251.802l-190.039,0.058l4.641,251.744Z" style="fill:#c2bfbb;fill-rule:nonzero;"/></g><g transform="matrix(1,0,0,1,-1263.96,-583.366)"><path d="M1411.07,862.789l19.451,0.211l1.691,-19.452l-25.158,-0.211l4.016,19.452Z" style="fill:#5c5e5f;fill-rule:nonzero;"/></g><g transform="matrix(1,0,0,1,-1263.96,-583.366)"><path d="M1404.97,843.337l6.02,19.663l0.846,-19.663l-6.866,0Z" style="fill:#2a2b2a;fill-rule:nonzero;"/></g><g transform="matrix(1,0,0,1,-1263.96,-583.366)"><path d="M1309.21,843.337l1.692,19.663l19.45,0l4.017,-19.874l-25.159,0.211Z" style="fill:#5c5e5f;fill-rule:nonzero;"/></g><g transform="matrix(1,0,0,1,-1263.96,-583.366)"><path d="M1329.51,843.127l0.845,19.45l6.018,-19.45l-6.863,0Z" style="fill:#2a2b2a;fill-rule:nonzero;"/></g><g transform="matrix(1,0,0,1,-1263.96,-583.366)"><path d="M1301.09,829.019c0,3.62 -2.936,6.555 -6.554,6.555c-3.621,0 -6.554,-2.935 -6.554,-6.555c0,-3.62 2.933,-6.554 6.554,-6.554c3.618,0 6.554,2.934 6.554,6.554" style="fill:#f19e75;fill-rule:nonzero;"/></g><g transform="matrix(1,0,0,1,-1263.96,-583.366)"><path d="M1453.59,829.019c0,3.62 -2.936,6.555 -6.554,6.555c-3.621,0 -6.554,-2.935 -6.554,-6.555c0,-3.62 2.933,-6.554 6.554,-6.554c3.618,0 6.554,2.934 6.554,6.554" style="fill:#f19e75;fill-rule:nonzero;"/></g><g transform="matrix(1,0,0,1,-1263.96,-583.366)"><path d="M1317.48,829.019c0,3.62 -2.936,6.555 -6.554,6.555c-3.621,0 -6.554,-2.935 -6.554,-6.555c0,-3.621 2.933,-6.555 6.554,-6.555c3.618,0 6.554,2.934 6.554,6.555" style="fill:#b01f25;fill-rule:nonzero;"/></g><g transform="matrix(1,0,0,1,-1263.96,-583.366)"><path d="M1437.73,829.019c0,3.62 -2.936,6.555 -6.554,6.555c-3.621,0 -6.554,-2.935 -6.554,-6.555c0,-3.621 2.933,-6.555 6.554,-6.555c3.618,0 6.554,2.934 6.554,6.555" style="fill:#b01f25;fill-rule:nonzero;"/></g><g transform="matrix(1,0,0,1,-1263.96,-583.366)"><path d="M1288.48,798.232l166.698,0.34l5.16,-163.09l-175.656,1.298l3.798,161.452Z" style="fill:#988a75;fill-rule:nonzero;"/></g><g transform="matrix(1,0,0,1,-1263.96,-583.366)"><path d="M1349.98,809.28l-0.211,19.162l44.398,0l0.001,-19.16l-44.188,-0.002Z" style="fill:#f7f5f0;fill-rule:nonzero;"/></g><g transform="matrix(1,0,0,1,-1263.96,-583.366)"><clipPath id="tag1"><path d="M1284.68,636.781l3.799,161.451l166.698,0.341l5.16,-163.09l-175.657,1.298Z"/></clipPath><g clip-path="url(#tag1)"><path d="M1464.72,658.908l-183.463,1.066l-0.06,-4.629l183.462,-1.067l0.061,4.63Z" style="fill:#7c715b;fill-rule:nonzero;"/><path d="M1464.98,688.906l-183.463,1.067l-0.06,-4.63l183.462,-1.068l0.061,4.631Z" style="fill:#7c715b;fill-rule:nonzero;"/><path d="M1465.25,718.906l-183.463,1.066l-0.06,-4.63l183.462,-1.067l0.061,4.631Z" style="fill:#7c715b;fill-rule:nonzero;"/><path d="M1465.51,748.904l-183.463,1.067l-0.06,-4.63l183.462,-1.067l0.061,4.63Z" style="fill:#7c715b;fill-rule:nonzero;"/><path d="M1465.77,778.904l-183.463,1.066l-0.06,-4.63l183.462,-1.067l0.061,4.631Z" style="fill:#7c715b;fill-rule:nonzero;"/></g></g></g></g></svg>

<?xml version="1.0" encoding="UTF-8" standalone="no"?>
<!DOCTYPE svg PUBLIC "-//W3C//DTD SVG 1.1//EN" "http://www.w3.org/Graphics/SVG/1.1/DTD/svg11.dtd">
<svg width="100%" height="100%" viewBox="0 0 300 360" version="1.1" xmlns="http://www.w3.org/2000/svg" xmlns:xlink="http://www.w3.org/1999/xlink" xml:space="preserve" xmlns:serif="http://www.serif.com/" style="fill-rule:evenodd;clip-rule:evenodd;stroke-linejoin:round;stroke-miterlimit:2;">
    <g id="truck-outbound" transform="matrix(1.27,0,0,1.27,12.84,4.86463)">
        <g transform="matrix(1,0,0,1,-1263.96,-583.366)">
            <path d="M1281.71,843.337L1283.4,863L1302.86,863L1306.87,843.126L1281.71,843.337Z" style="fill:rgb(91,93,94);fill-rule:nonzero;"/>
        </g>
        <g transform="matrix(1,0,0,1,-1263.96,-583.366)">
            <path d="M1302.01,843.127L1302.86,862.577L1308.88,843.127L1302.01,843.127Z" style="fill:rgb(41,43,41);fill-rule:nonzero;"/>
        </g>
        <g transform="matrix(1,0,0,1,-1263.96,-583.366)">
            <path d="M1438.57,862.79L1458.02,863.001L1459.71,843.549L1434.56,843.338L1438.57,862.79Z" style="fill:rgb(91,93,94);fill-rule:nonzero;"/>
        </g>
        <g transform="matrix(1,0,0,1,-1263.96,-583.366)">
            <path d="M1432.47,843.337L1438.49,863L1439.34,843.337L1432.47,843.337Z" style="fill:rgb(41,43,41);fill-rule:nonzero;"/>
        </g>
        <g transform="matrix(1,0,0,1,-1263.96,-583.366)">
            <path d="M1281.59,843.534L1459.8,843.534L1466.98,591.732L1276.94,591.79L1281.59,843.534Z" style="fill:rgb(193,190,187);fill-rule:nonzero;"/>
        </g>
        <g transform="matrix(1,0,0,1,-1263.96,-583.366)">
            <path d="M1411.07,862.79L1430.52,863.001L1432.21,843.549L1407.06,843.338L1411.07,862.79Z" style="fill:rgb(91,93,94);fill-rule:nonzero;"/>
        </g>
        <g transform="matrix(1,0,0,1,-1263.96,-583.366)">
            <path d="M1404.97,843.337L1410.99,863L1411.84,843.337L1404.97,843.337Z" style="fill:rgb(41,43,41);fill-rule:nonzero;"/>
        </g>
        <g transform="matrix(1,0,0,1,-1263.96,-583.366)">
            <path d="M1309.21,843.337L1310.91,863L1330.36,863L1334.37,843.126L1309.21,843.337Z" style="fill:rgb(91,93,94);fill-rule:nonzero;"/>
        </g>
        <g transform="matrix(1,0,0,1,-1263.96,-583.366)">
            <path d="M1329.51,843.127L1330.36,862.577L1336.38,843.127L1329.51,843.127Z" style="fill:rgb(41,43,41);fill-rule:nonzero;"/>
        </g>
        <g transform="matrix(1,0,0,1,-1263.96,-583.366)">
            <path d="M1301.09,829.02C1301.09,832.64 1298.15,835.574 1294.54,835.574C1290.92,835.574 1287.98,832.64 1287.98,829.02C1287.98,825.4 1290.92,822.466 1294.54,822.466C1298.15,822.466 1301.09,825.4 1301.09,829.02" style="fill:rgb(240,157,116);fill-rule:nonzero;"/>
        </g>
        <g transform="matrix(1,0,0,1,-1263.96,-583.366)">
            <path d="M1453.59,829.02C1453.59,832.64 1450.65,835.574 1447.04,835.574C1443.42,835.574 1440.48,832.64 1440.48,829.02C1440.48,825.4 1443.42,822.466 1447.04,822.466C1450.65,822.466 1453.59,825.4 1453.59,829.02" style="fill:rgb(240,157,116);fill-rule:nonzero;"/>
        </g>
        <g transform="matrix(1,0,0,1,-1263.96,-583.366)">
            <path d="M1317.48,829.02C1317.48,832.64 1314.55,835.574 1310.93,835.574C1307.31,835.574 1304.37,832.64 1304.37,829.02C1304.37,825.399 1307.31,822.465 1310.93,822.465C1314.55,822.465 1317.48,825.399 1317.48,829.02" style="fill:rgb(175,31,37);fill-rule:nonzero;"/>
        </g>
        <g transform="matrix(1,0,0,1,-1263.96,-583.366)">
            <path d="M1437.73,829.02C1437.73,832.64 1434.8,835.574 1431.18,835.574C1427.56,835.574 1424.62,832.64 1424.62,829.02C1424.62,825.399 1427.56,822.465 1431.18,822.465C1434.8,822.465 1437.73,825.399 1437.73,829.02" style="fill:rgb(175,31,37);fill-rule:nonzero;"/>
        </g>
        <g transform="matrix(1,0,0,1,-1263.96,-583.366)">
            <path d="M1288.48,798.232L1455.18,798.572L1460.34,635.482L1284.68,636.78L1288.48,798.232Z" style="fill:rgb(151,138,116);fill-rule:nonzero;"/>
        </g>
        <g transform="matrix(1,0,0,1,-1263.96,-583.366)">
            <path d="M1349.98,809.28L1349.77,828.442L1394.16,828.442L1394.16,809.282L1349.98,809.28Z" style="fill:rgb(245,245,239);fill-rule:nonzero;"/>
        </g>
        <g transform="matrix(1,0,0,1,-1263.96,-583.366)">
            <path d="M1284.68,636.781L1288.48,798.232L1455.18,798.573L1460.34,635.483L1284.68,636.781Z" style="fill:none;"/>
            <clipPath id="_clip1">
                <path d="M1284.68,636.781L1288.48,798.232L1455.18,798.573L1460.34,635.483L1284.68,636.781Z"/>
            </clipPath>
            <g clip-path="url(#_clip1)">
                <path d="M1464.72,658.908L1281.26,659.974L1281.2,655.345L1464.66,654.278L1464.72,658.908Z" style="fill:rgb(124,112,91);fill-rule:nonzero;"/>
                <path d="M1464.98,688.906L1281.52,689.973L1281.46,685.343L1464.92,684.275L1464.98,688.906Z" style="fill:rgb(124,112,91);fill-rule:nonzero;"/>
                <path d="M1465.25,718.906L1281.78,719.972L1281.72,715.342L1465.18,714.275L1465.25,718.906Z" style="fill:rgb(124,112,91);fill-rule:nonzero;"/>
                <path d="M1465.51,748.904L1282.04,749.971L1281.98,745.341L1465.45,744.274L1465.51,748.904Z" style="fill:rgb(124,112,91);fill-rule:nonzero;"/>
                <path d="M1465.77,778.904L1282.31,779.97L1282.25,775.34L1465.71,774.273L1465.77,778.904Z" style="fill:rgb(124,112,91);fill-rule:nonzero;"/>
            </g>
        </g>
    </g>
</svg>
